X: 27213
T: Miss Ramsey's Highland
R: strathspey
M: 4/4
K: Dmajor
|:D2 D>B A>GF>E|D>EF>D E<BB>A|D2 D>B A>DF>A|1 (3Bcd A>F E>BA>F:|2 (3Bcd A>F E>F D2||
f<dd>f e<cc>e|d>ef>d A>Bd>e|f<dd>f e<cc>A|(3Bcd A>F E>F D2|
f<dd>f e<cc>e|d>ef>d A>Bd>e|f>de>c d>BA>F|(3Bcd A>F E>BA>F||

